src/Components/InputPassWithHide/images/bi_eye-slash.svg

<svg width="18" height="18" viewBox="0 0 18 18" fill="none" xmlns="http://www.w3.org/2000/svg">
<path d="M9 11.25C10.2426 11.25 11.25 10.2426 11.25 9C11.25 7.75736 10.2426 6.75 9 6.75C7.75736 6.75 6.75 7.75736 6.75 9C6.75 10.2426 7.75736 11.25 9 11.25Z" fill="black"/>
<path d="M13.8804 4.96336C12.3434 3.90937 10.6984 3.375 8.99156 3.375C7.45559 3.375 5.95828 3.83203 4.54113 4.72781C3.11203 5.63309 1.71105 7.27734 0.5625 9C1.49133 10.5469 2.76187 12.1373 4.08516 13.0493C5.6032 14.0948 7.25379 14.625 8.99156 14.625C10.7142 14.625 12.3613 14.0952 13.8888 13.0504C15.2336 12.1289 16.5132 10.5405 17.4375 9C16.5101 7.47316 15.2262 5.88656 13.8804 4.96336ZM9 12.375C8.33249 12.375 7.67997 12.1771 7.12495 11.8062C6.56993 11.4354 6.13735 10.9083 5.88191 10.2916C5.62646 9.67486 5.55962 8.99626 5.68985 8.34157C5.82008 7.68688 6.14151 7.08552 6.61351 6.61351C7.08552 6.14151 7.68688 5.82008 8.34157 5.68985C8.99626 5.55962 9.67486 5.62646 10.2916 5.88191C10.9083 6.13735 11.4354 6.56993 11.8062 7.12495C12.1771 7.67997 12.375 8.33249 12.375 9C12.374 9.89479 12.0181 10.7526 11.3854 11.3854C10.7526 12.0181 9.89479 12.374 9 12.375Z" fill="black"/>
</svg>

<svg width="18" height="18" fill="none" xmlns="http://www.w3.org/2000/svg"><path d="M9 11.25a2.25 2.25 0 1 0 0-4.5 2.25 2.25 0 0 0 0 4.5Z" fill="#000"/><path d="M13.88 4.963c-1.537-1.054-3.182-1.588-4.888-1.588-1.536 0-3.034.457-4.45 1.353-1.43.905-2.83 2.55-3.98 4.272.93 1.547 2.2 3.137 3.523 4.05 1.518 1.045 3.169 1.575 4.907 1.575 1.722 0 3.37-.53 4.897-1.575 1.345-.921 2.624-2.51 3.549-4.05-.928-1.527-2.212-3.113-3.558-4.037ZM9 12.375a3.375 3.375 0 1 1 0-6.75 3.375 3.375 0 0 1 0 6.75Z" fill="#000"/></svg>
